X:1
T:a
T:am
T:am
T:am
L:1/8
M:4/4
I:linebreak $
K:G
V:1 treble nm="Fiddle" snm="Fiddle"
V:1
 D2 |: EDEG A2 AG | ABcd e2 A2 | G2 B2 G2 D2 | GABc d2 D2 |$ EDEG A2 AG | ABcd e2 A2 | cBAc BAGB |1 %8
 A2 AA A2 D2 :|2 A2 AA A2 e2 |:$ e2 a2 a2 a2 | abag e2 d2 |"G" edef gagf | edBd e2 e2 |$ %14
 A2 AA c2 cc | dc d2 e2 A2 | cBAc BAGB |1 A2 AA A2 e2 :|2 A2 AA A2 D2 |] %19
